v2/perps-v2/ui/public/asset-icons/AXS.svg

<svg width="42" height="42" viewBox="0 0 42 42" fill="none" xmlns="http://www.w3.org/2000/svg">
<g clip-path="url(#clip0_5604_37105)">
<path fill-rule="evenodd" clip-rule="evenodd" d="M21 0C32.5962 0 42 9.4038 42 21C42 32.5962 32.5962 42 21 42C9.4038 42 0 32.5962 0 21C0 9.4038 9.4038 0 21 0Z" fill="#0055D5"/>
<path fill-rule="evenodd" clip-rule="evenodd" d="M11.424 13.8936C11.424 13.8936 9.16439 12.0876 9.00899 16.548C8.85359 20.0046 8.85779 26.7162 10.458 29.8872C11.1342 31.08 12.0372 30.7146 13.7172 29.526C15.1788 28.4466 20.4666 23.5746 22.7052 21.4368C24.9438 19.299 29.484 13.167 30.429 17.3334C30.8028 19.0848 31.2648 20.5716 30.912 24.4566C30.8028 25.6536 30.2904 26.5608 27.9552 24.9396C26.1912 23.8056 24.5154 22.5876 24.5154 22.5876C24.5154 22.5876 24.192 22.008 23.4276 22.9488C22.827 23.7006 22.5246 23.8854 23.4864 24.4566C24.4524 25.0278 29.337 28.3962 31.2102 28.9212C32.7558 29.3706 33.6378 29.3622 33.684 26.3256C33.6756 23.9148 33.537 17.0142 32.6592 14.0742C31.9956 12.243 31.0212 11.4114 28.917 13.4694C26.8128 15.5274 20.1768 21.9618 16.548 24.8766C14.1414 26.6826 13.1124 28.3122 12.2052 25.3008C11.5668 23.0202 10.7394 15.9222 13.3518 17.2746C14.9856 18.0558 15.8004 18.0516 15.162 18.543C14.5236 19.0302 12.6882 20.7144 12.6882 20.7144C12.6882 20.7144 12.1212 21.1722 12.3858 22.1634C12.6504 22.8564 12.6504 23.2008 14.0742 21.861C15.498 20.5212 16.548 19.509 16.548 19.509C16.548 19.509 16.7748 19.152 17.451 19.8114C18.1272 20.4708 18.2364 20.6556 18.2364 20.6556C18.2364 20.6556 18.417 21.147 19.1394 20.2944C19.866 19.4418 20.3322 18.921 18.9588 18.123C17.5896 17.3166 11.424 13.8936 11.424 13.8936Z" fill="white"/>
</g>
<defs>
<clipPath id="clip0_5604_37105">
<rect width="42" height="42" fill="white"/>
</clipPath>
</defs>
</svg>

<svg width="42" height="42" fill="none" xmlns="http://www.w3.org/2000/svg"><g clip-path="url(#a)" fill-rule="evenodd" clip-rule="evenodd"><path d="M21 0c11.596 0 21 9.404 21 21s-9.404 21-21 21S0 32.596 0 21 9.404 0 21 0Z" fill="#0055D5"/><path d="M11.424 13.894s-2.26-1.806-2.415 2.654c-.155 3.457-.151 10.168 1.449 13.34.676 1.192 1.58.827 3.26-.362 1.46-1.08 6.749-5.951 8.987-8.09 2.239-2.137 6.779-8.269 7.724-4.103.374 1.752.836 3.239.483 7.124-.11 1.197-.622 2.104-2.957.483-1.764-1.134-3.44-2.352-3.44-2.352s-.323-.58-1.087.36c-.601.753-.903.937.058 1.509.966.57 5.851 3.94 7.724 4.464 1.546.45 2.428.441 2.474-2.595-.008-2.411-.147-9.312-1.025-12.252-.663-1.831-1.638-2.663-3.742-.605s-8.74 8.493-12.369 11.408c-2.407 1.806-3.436 3.435-4.343.424-.638-2.28-1.466-9.379 1.147-8.026 1.634.78 2.448.777 1.81 1.268-.638.487-2.474 2.171-2.474 2.171s-.567.458-.302 1.45c.264.692.264 1.037 1.688-.303 1.424-1.34 2.474-2.352 2.474-2.352s.227-.357.903.302c.676.66.785.845.785.845s.181.491.903-.362c.727-.852 1.193-1.373-.18-2.171-1.37-.806-7.535-4.23-7.535-4.23Z" fill="#fff"/></g><defs><clipPath id="a"><path fill="#fff" d="M0 0h42v42H0z"/></clipPath></defs></svg>
